X: 35342
T: Rosewood
R: jig
M: 6/8
K: Gmajor
|:e|g2 e def|gdc BAG|gfg Bcd|eAA A2 e|
gfe def|gdc BAG|Bcd ABc|BGG G2:|
|:c|Bdd GB/c/d|ecB c2 B|A2 e Ace|fdd def|
gfe dcB|edc BAG|Bcc ABc|BGG G2:|

